X:254
T:B254-  John Anderson, my Jo
S:(2nd/2)
Q:1/4=120
L:1/4
M:C|
K:Am
A3/4G/4|EAAA/2G/2|c3/2d/2c3/2d/2|BA/2G/2GG|G3E/2D/2|\
EAAA/2B/2|c3/2d/2cd|ed/2c/2cd|e3||g|\
ed/2c/2c3/2d/2|c/2d/2 e/2f/2gd/2c/2|BgG/2A/2 B/2c/2|\
d3c/2d/2|e3/2d/2cd/2e/2|f/2e/2 d/2c/2BA/2^G/2|\
A/2B/2 c/2d/2 e/2d/2 c/2B/2|A3|]
